X: 39931
T: Thomond Bridge
R: hornpipe
M: 4/4
K: Fmajor
|:a>g|f>dc>A B>Gc>B|A2 F2 F2 f>g|a>gf>e f>ag>f|e2 c2 c2 c>A|
B>df>b A>cf>a|G>Bd>g F>Ac>f|e>fg>a b3/2[g/c'/] [e3/2d'3/2][c/e'/]|[f2f'2] [f2f'2] [f2f'2]:|
|:c>B|A>fc>f A>fc>f|a>gf>e d>cB>A|B>gd>g B>gd>g|b>ag>f (3efe (3dcB|
A>fc>f A>fc>f|a>gf>e d>cB>A|B>dc>B A>GF>E|G2 F2 F2:|

